@VAS0 = { 0 }
@VAS1 = { 0 255 0 }

A @TYPE3 @VAS0
A t75
A r16o5c8r16c16c16r4..e8r16
A e16g8.c8r16>a16r16a16r4.
A f16r16a16r16a16r16a16r4<c8r16c16c16
A r4..e8r16e16g8.c8
A r16>a16r16a16r4.f16r16a16r16a16r16
A a16r4<c8r16c16c16r4..
A e8r16e16g8.c8r16>a16r16a16r4.
A f16r16a16r16a16r16a16r4<c8
A r16d16f16r8f16r4f8r16f16a8.
A c8r16>a16r16a16r4.f16r16
A a16r16a16r16a16r2r8.
A @VAS0

B @TYPE4 @VAS1 v64
B t75
B r16o5c8r16c16c16r4..e8r16
B e16g8.c8r16>a16r16a16r4.
B f16r16a16r16a16r16a16r4<c8r16c16c16
B r4..e8r16e16g8.c8
B r16>a16r16a16r4.f16r16a16r16a16r16
B a16r4<c8r16c16c16r4..
B e8r16e16g8.c8r16>a16r16a16r4.
B f16r16a16r16a16r16a16r4<c8
B r16d16f16r8f16r4f8r16f16a8.
B c8r16>a16r16a16r4.f16r16
B a16r16a16r16a16r2r8.
B @VAS1
