@S0 = { hat.ogg }
@S1 = { crash.ogg }
@VAS0 = { 0 }
@VAS1 = { 255 255 255 255 255 0 }
@VAS2 = { 160 160 160 160 160 160 160 160 160 160 160 160 160 160 160 160 160 160 160 160 0 }
@PO0 = { -8 -40 }

A t130 y32 @VAS1
A o3c8r8d+4c+8r8d+4
A c+16r16c+8d+4<c+4>g8.<f+16
A >c16r16c8d+8r8c+16r16c+8d+8.r16
A c+16r16c+8e8r8f+8.r16<f+4
A >c8r8d+4c+8r8d+4
A c+16r16c+8d+4<c+4>g8.<f+16
A >c16r16c8d+8r8c+16r16c+8d+8.r16
A c+16r16c+8e8r8f+8.r16<f+4
A >c8r8d+4c+8r8d+4
A c+16r16c+8d+4<c+4>g8.<f+16
A >c16r16c8d+8r8c+16r16c+8d+8.r16
A c+16r16c+8e8r8f+8.r16<f+4
A >c32r32c32r16.c32r32c2r4
A d+16r16c+16r16d+16r16c+16r16d+16r16c+16r16d+16r16c+16r16
A <c32r32c32r16.c32r32c2r4
A d+16r16c+16r16d+16r16c+16r16d+16r16c+16r16d+16r8.
A >c32r32c32r16.c32r32c2r4
A d+16r16c+16r16d+16r16c+16r16d+16r16c+16r16d+16r16c+16r16
A <c32r32c32r16.c32r32c2r4
A d+16r16c+16r16d+16r16c+16r16d+16r16c+16r16d+16r8.
A >c32r32c32r16.c32r32c2r4
A d+16r16c+16r16d+16r16c+16r16d+16r16c+16r16d+16r16c+16r16
A <c32r32c32r16.c32r32c2r4
A d+16r16c+16r16d+16r16c+16r16d+16r16c+16r16d+16r8.
A r64 VAS1

B @TYPE2 v160 @VAS2
B t130
B o3c2.r4
B d2>b2
B <c2.r4
B >b2<d2
B c2.r4
B d2>b2
B <c2.r4
B >b2<d2
B c2.r4
B d2>b2
B <c2.r4
B >b2<d2
B c2..r8
B >b2<d2
B c2..r8
B b2<d2
B >c2..r8
B >b2<d2
B c2..r8
B b2<d2
B >c2..r8
B >b2<d2
B c2..r8
B b2<d2
B r64 @VAS2

C t130
C @S0 v96
C o5c16r16c16r16c16r16c16r16c16r16c16r16c16r16c16r16
C c16r16c16r16c16r16c16r16c16c16r16c16c16r16c16r16
C c16r16c16r16c16r16c16r16c16r16c16r16c16r16c16r16
C c16r16c16r16c16r16c16r16c16c16r16c16c16r16c16r16
C c16r16c16r16c16r16c16r16c16r16c16r16c16r16c16r16
C c16r16c16r16c16r16c16r16c16c16r16c16c16r16c16r16
C c16r16c16r16c16r16c16r16c16r16c16r16c16r16c16r16
C c16r16c16r16c16r16c16r16c16c16r16c16c16r16c16r16
C c16r16c16r16c16r16c16r16c16r16c16r16c16r16c16r16
C c16r16c16r16c16r16c16r16c16c16r16c16c16r16c16r16
C c16r16c16r16c16r16c16r16c16r16c16r16c16r16c16r16
C c16r16c16r16c16r16c16r16c16c16r16c16c16r16c16r16
C c32r8..c32r8..c32r16.c32r16.c32r8..
C c32r8..c32r8..c32r16.c32r16.c32r8..
C c32r8..c32r8..c32r16.c32r16.c32r8..
C c32r8..c32r4...c32r16.c32r16.
C c32r8..c32r8..c32r16.c32r16.c32r8..
C c32r8..c32r8..c32r16.c32r16.c32r8..
C c32r8..c32r8..c32r16.c32r16.c32r8..
C c32r8..c32r4...c32r16.c32r16.
C c32r8..c32r8..c32r16.c32r16.c32r8..
C c32r8..c32r8..c32r16.c32r16.c32r8..
C c32r8..c32r8..c32r16.c32r16.c32r8..
C c32r8..c32r4...c32r16.c32r16..

D t130 @S1
D o4c1
D r1
D r1
D r1
D c1
D r1
D r1
D r1
D c1
D r1
D r1
D r1
D r1
D r1
D r4.
D c1
D r1
D r1
D r1
D c1
D r1
D r1
D r1
D c1
D r2r8
D r64

E t130
E v416
E @TYPE0 @VAS0 @PO0
E o3c16r2r8.c16c16r16c16
E c16r4..c16c16r16c16c16r16c16r16
E c16r4..c16r16c16r16c16r8.
E c16r16c16r16c16r8.c16c16r16c16c16r16c16r16
E c16r2r8.c16c16r16c16
E c16r4..c16c16r16c16c16r16c16r16
E c16r4..c16r16c16r16c16r8.
E c16r16c16r16c16r8.c16c16r16c16c16r16c16r16
E c16r2r8.c16c16r16c16
E c16r4..c16c16r16c16c16r16c16r16
E c16r4..c16r16c16r16c16r8.
E c16r16c16r16c16r8.c16c16r16c16c16r16c16r16
E c16c16r16c16c16r8.c16r16c16r16c16r8.
E c16r8.c16r8.c16r16c16r16c16r16c16r16
E c16c16r16c16c16r8.c16r16c16r16c16r8.
E c16r8.c16r4..c16r16c16r16
E c16c16r16c16c16r8.c16r16c16r16c16r8.
E c16r8.c16r8.c16r16c16r16c16r16c16r16
E c16c16r16c16c16r8.c16r16c16r16c16r8.
E c16r8.c16r4..c16r16c16r16
E c16c16r16c16c16r8.c16r16c16r16c16r8.
E c16r8.c16r8.c16r16c16r16c16r16c16r16
E c16c16r16c16c16r8.c16r16c16r16c16r8.
E c16r8.c16r4..c16r16c16r16
E r64
E @VAS0 @PO0

F t130
F v416
F @TYPE2 @VAS0 @PO0
F o3c16r2r8.c16c16r16c16
F c16r4..c16c16r16c16c16r16c16r16
F c16r4..c16r16c16r16c16r8.
F c16r16c16r16c16r8.c16c16r16c16c16r16c16r16
F c16r2r8.c16c16r16c16
F c16r4..c16c16r16c16c16r16c16r16
F c16r4..c16r16c16r16c16r8.
F c16r16c16r16c16r8.c16c16r16c16c16r16c16r16
F c16r2r8.c16c16r16c16
F c16r4..c16c16r16c16c16r16c16r16
F c16r4..c16r16c16r16c16r8.
F c16r16c16r16c16r8.c16c16r16c16c16r16c16r16
F c16c16r16c16c16r8.c16r16c16r16c16r8.
F c16r8.c16r8.c16r16c16r16c16r16c16r16
F c16c16r16c16c16r8.c16r16c16r16c16r8.
F c16r8.c16r4..c16r16c16r16
F c16c16r16c16c16r8.c16r16c16r16c16r8.
F c16r8.c16r8.c16r16c16r16c16r16c16r16
F c16c16r16c16c16r8.c16r16c16r16c16r8.
F c16r8.c16r4..c16r16c16r16
F c16c16r16c16c16r8.c16r16c16r16c16r8.
F c16r8.c16r8.c16r16c16r16c16r16c16r16
F c16c16r16c16c16r8.c16r16c16r16c16r8.
F c16r8.c16r4..c16r16c16r16
F r64
F @VAS0 @PO0

G t130
G v416
G @TYPE3 @VAS0 @PO0
G o4c16r2r8.c16c16r16c16
G c16r4..c16c16r16c16c16r16c16r16
G c16r4..c16r16c16r16c16r8.
G c16r16c16r16c16r8.c16c16r16c16c16r16c16r16
G c16r2r8.c16c16r16c16
G c16r4..c16c16r16c16c16r16c16r16
G c16r4..c16r16c16r16c16r8.
G c16r16c16r16c16r8.c16c16r16c16c16r16c16r16
G c16r2r8.c16c16r16c16
G c16r4..c16c16r16c16c16r16c16r16
G c16r4..c16r16c16r16c16r8.
G c16r16c16r16c16r8.c16c16r16c16c16r16c16r16
G c16c16r16c16c16r8.c16r16c16r16c16r8.
G c16r8.c16r8.c16r16c16r16c16r16c16r16
G c16c16r16c16c16r8.c16r16c16r16c16r8.
G c16r8.c16r4..c16r16c16r16
G c16c16r16c16c16r8.c16r16c16r16c16r8.
G c16r8.c16r8.c16r16c16r16c16r16c16r16
G c16c16r16c16c16r8.c16r16c16r16c16r8.
G c16r8.c16r4..c16r16c16r16
G c16c16r16c16c16r8.c16r16c16r16c16r8.
G c16r8.c16r8.c16r16c16r16c16r16c16r16
G c16c16r16c16c16r8.c16r16c16r16c16r8.
G c16r8.c16r4..c16r16c16r16
G r64
G @VAS0 @PO0

