@VAS0 = { 0 }
@VAS1 = { 255 255 255 255 0 }
@PN0 = { a3 }
@PO0 = { 0 -32 }
@PO1 = { 0 -64 }

A v255 t160 o3 @TYPE0 y32
A >a4r8<c2w8
A >a4r8<c2w8
A >a4r8<c2w8
A >a4r8<c2w8
A d4r8c2w8
A d4r8c2w8
A d4r8c2w8
A d4r8c2w8
A >a4r8<c2w8
A >a4r8<c2w8
A >a4r8<c2w8
A >a4r8<c2w8
A d4r8c2w8
A d4r8c2w8
A d4r8c2w8
A d4r8c2w8
A v255 @PN0 d1w1w1w1w1w1w1w1
A r192

B v512 t160 o8 @TYPE1 @VAS1 @CV1
B c32.r64r4..c32.r64r16c32.r64r16c32.r64r8.
B c32.r64r4..c32.r64r4..
B c32.r64r4..c32.r64r16c32.r64r16c32.r64r8.
B c32.r64r4..c32.r64r4..
B c32.r64r4..c32.r64r16c32.r64r16c32.r64r8.
B c32.r64r4..c32.r64r4..
B c32.r64r4..c32.r64r16c32.r64r16c32.r64r8.
B c32.r64r4..c32.r64r4..
B c32.r64r4..c32.r64r16c32.r64r16c32.r64r8.
B c32.r64r4..c32.r64r4..
B c32.r64r4..c32.r64r16c32.r64r16c32.r64r8.
B c32.r64r4..c32.r64r4..
B c32.r64r4..c32.r64r16c32.r64r16c32.r64r8.
B c32.r64r4..c32.r64r4..
B c32.r64r4..c32.r64r16c32.r64r16c32.r64r8.
B c32.r64r4..c32.r64r1
B r1
B r1
B r1
B r1
B r1
B r1
B r1
B r3
B r16.. @VAS1

C v384 t160 o2 @TYPE0
C @VAS0
C @PO0
C c4r2c16r8.
C c4r2c16r8.
C c4r2c16r8.
C c4r2c16r16c16r16
C c4r2c16r8.
C c4r2c16r8.
C c4r2c16r8.
C c4r2c16r16c16r16
C c4r2c16r8.
C c4r2c16r8.
C c4r2c16r8.
C c4r2c16r16c16r16
C c4r2c16r8.
C c4r2c16r8.
C c4r2c16r8.
C c4r2c16r16c16r16
C c4r2c16r8.
C c16r16c16r16c16r16c16r16c16r16c16r16c16r16c16r16
C c4r2c16r8.
C c16r16c16r16c16r16c16r16c16r16c16r16c16r16c16r16
C c4r2c16r8.
C c16r16c16r16c16r16c16r16c16r16c16r16c16r16c16r16
C c4r2c16r8.
C c16r16c16r16c16r16c16r16c16r16c16r16c16r16c16r16
C r192
C @PO0
C @VAS0

D v512 t160 o2 @TYPE2
D @VAS0
D @PO0
D c4r2c16r8.
D c4r2c16r8.
D c4r2c16r8.
D c4r2c16r16c16r16
D c4r2c16r8.
D c4r2c16r8.
D c4r2c16r8.
D c4r2c16r16c16r16
D c4r2c16r8.
D c4r2c16r8.
D c4r2c16r8.
D c4r2c16r16c16r16
D c4r2c16r8.
D c4r2c16r8.
D c4r2c16r8.
D c4r2c16r16c16r16
D c4r2c16r8.
D c16r16c16r16c16r16c16r16c16r16c16r16c16r16c16r16
D c4r2c16r8.
D c16r16c16r16c16r16c16r16c16r16c16r16c16r16c16r16
D c4r2c16r8.
D c16r16c16r16c16r16c16r16c16r16c16r16c16r16c16r16
D c4r2c16r8.
D c16r16c16r16c16r16c16r16c16r16c16r16c16r16c16r16
D r192
D @PO0
D @VAS0

E v512 t160 o3 @TYPE4
E @VAS0
E @PO1
E c4r2c16r8.
E c4r2c16r8.
E c4r2c16r8.
E c4r2c16r16c16r16
E c4r2c16r8.
E c4r2c16r8.
E c4r2c16r8.
E c4r2c16r16c16r16
E c4r2c16r8.
E c4r2c16r8.
E c4r2c16r8.
E c4r2c16r16c16r16
E c4r2c16r8.
E c4r2c16r8.
E c4r2c16r8.
E c4r2c16r16c16r16
E c4r2c16r8.
E c16r16c16r16c16r16c16r16c16r16c16r16c16r16c16r16
E c4r2c16r8.
E c16r16c16r16c16r16c16r16c16r16c16r16c16r16c16r16
E c4r2c16r8.
E c16r16c16r16c16r16c16r16c16r16c16r16c16r16c16r16
E c4r2c16r8.
E c16r16c16r16c16r16c16r16c16r16c16r16c16r16c16r16
E r192
E @PO1
E @VAS0

F v1024 t160 o3 @TYPE3
F @VAS0
F @PO1
F c4r2c16r8.
F c4r2c16r8.
F c4r2c16r8.
F c4r2c16r16c16r16
F c4r2c16r8.
F c4r2c16r8.
F c4r2c16r8.
F c4r2c16r16c16r16
F c4r2c16r8.
F c4r2c16r8.
F c4r2c16r8.
F c4r2c16r16c16r16
F c4r2c16r8.
F c4r2c16r8.
F c4r2c16r8.
F c4r2c16r16c16r16
F c4r2c16r8.
F c16r16c16r16c16r16c16r16c16r16c16r16c16r16c16r16
F c4r2c16r8.
F c16r16c16r16c16r16c16r16c16r16c16r16c16r16c16r16
F c4r2c16r8.
F c16r16c16r16c16r16c16r16c16r16c16r16c16r16c16r16
F c4r2c16r8.
F c16r16c16r16c16r16c16r16c16r16c16r16c16r16c16r16
F r192
F @PO1
F @VAS0
