C v7 o4 @q5
C t160
C c8r8c8c8r8c8c8r4
C c8r8c8r8c8c8r8
C c8r8c8c8r8c8c8r4
C c8r8c8r8c8c8r8
C c8r8c8c8r8c8c8r4
C c8r8c8r8c8c8r8
C c8r8c8c8r8c8c8r4
C c8r8c8r8c8c8r8
C c8r8c8c8r8c8c8r4
C c8r8c8r8c8c8r8
C c8r8c8c8r8c8c8r4
C c8r8c8r8c8c8r8
C c8r8c8c8r8c8c8r4
C c8r8c8r8c8c8r8
C c8r8c8c8r8c8c8r4
C c8r8c8r8c8c8r8
C c8r8c8c8r8c8c8r4
C c8r8c8r8c8c8r8
C c8r8c8c8r8c8c8r4
C c8r8c8r8c8c8r8
C c8r8c8c8r8c8c8r4
C c8r8c8r8c8c8r8
C c8r8c8c8r8c8c8r4
C c8r8c8r8c8c8

D t160 v10 @q5
D o1c16r16c16r16c16r8.c16r8c16c16r4..
D c16r16c16r16c16r16c16r16c16r16c16r16
D c16r16c16r16c16r8.c16r8c16c16r4..
D c16r16c16r16c16r16c16r16c16r16c16r16
D c16r16c16r16c16r8.c16r8c16c16r4..
D c16r16c16r16c16r16c16r16c16r16c16r16
D c16r16c16r16c16r8.c16r8c16c16r4..
D c16r16c16r16c16r16c16r16c16r16c16r16
D c16r16c16r16c16r8.c16r8c16c16r4..
D c16r16c16r16c16r16c16r16c16r16c16r16
D c16r16c16r16c16r8.c16r8c16c16r4..
D c16r16c16r16c16r16c16r16c16r16c16r16
D c16r16c16r16c16r8.c16r8c16c16r4..
D c16r16c16r16c16r16c16r16c16r16c16r16
D c16r16c16r16c16r8.c16r8c16c16r4..
D c16r16c16r16c16r16c16r16c16r16c16r16
D c16r16c16r16c16r8.c16r8c16c16r4..
D c16r16c16r16c16r16c16r16c16r16c16r16
D c16r16c16r16c16r8.c16r8c16c16r4..
D c16r16c16r16c16r16c16r16c16r16c16r16
D c16r16c16r16c16r8.c16r8c16c16r4..
D c16r16c16r16c16r16c16r16c16r16c16r16
D c16r16c16r16c16r8.c16r8c16c16r4..
D c16r16c16r16c16r16c16r16c16r16c16r16
D r192

E o0
E t160
E r2.c4
E r2.c4
E r2.c4
E r2.c4
E r2.c4
E r2.c4
E r2.c4
E r2.c4
E r2.c4
E r2.c4
E r2.c4
E r2.c4
E r2.c4
E r2.c4
E r2.c4
E r2.c4
E r1..
E c8r8
E c8r1.
E r8
E c8c8
E c8r1.
E r8
E c8r8
E c8

B t160 @@0 v10
B o4c8r8<b8b8r8>d16r16<<b4
B r8>b8r8b8r8>d8<<b4
B >>c8r8<b8b8r8>d16r16<<b4
B r8>b8r8b8r8>d8<<b4
B >>c8r8<b8b8r8>d16r16<<b4
B r8>b8r8b8r8>d8<<b4
B >>c8r8<b8b8r8>d16r16<<b4
B r8>b8r8b8r8>d8<<b4
B r4>b16r16b8r8>d16r16e8.r16
B d8r8<b16r16b8r8>d16r16<b4
B r4b16r16b8r8>d16r16e8.r16
B d8r8<b16r16b8r8>d16r16<b4
B >c8r8<b8b8r8>d16r16<<b4
B r8>b8r8b8r8>d8<<b4
B >>c8r8<b8b8r8>d16r16<<b4
B r8>b8r8b8r8>d8<<b4
B r4>b4..r16b8r8
B g1
B r4a4..r16a8r8
B f+1
B r4b4..r16b8r8
B g2.e8r8
B d4a4..r16a8r8
B f+2.a4
B r192
