A t160 v8 o3 @@2
A a8>e8c8<b8>d8e8g8e8
A [<a8>e8c8<b8>d8e8g8e8]7
A v9 <a16b16>c16d16e16f16a16b16>c16d16e16f16g16a16b16>c16
A d4e4f4g4
A r1
A r1
A >e16c16<a16>e16c16<a16b16g16e16b16g16e16g16e16c16d16
A <b16g16a16f16d16e16c16<a16>e16c16<a16b16>c16d16e8
A <a16>c16e16a16>c16e16r16a16f16c16<a16f16c16<a16e16g16
A <a16b16>c16d16e16f16a16b16>c16d16e16f16g16a16b16>c16
A d4e4f4g4
A r1
A r1
A >e16c16<a16>e16c16<a16b16g16e16b16g16e16g16e16c16d16
A <b16g16a16f16d16e16c16<a16>e16c16<a16b16>c16d16e8
A <a16>c16e16a16>c16e16>c16<a16f16c16<a16f16c16<a16e16g16
A a16>c16e16a16>c16e16>c16<a16f16c16<a16f16c16<a16e16g16
A a32>c32e32a32>c32e32>c32<a32f32c32<a32f32c32<a32e32g32a32>c32e32a32>c32e32>c32<a32f32c32<a32f32c32<a32e32g32
A v6 
A [<a8>e8c8<b8>d8e8g8e8]8
A v9 <a16b16>c16d16e16f16a16b16>c16d16e16f16g16a16b16>c16
A d4e4f4g4
A <<a32>c32e32a32>c32e32>c32<a32f32c32<a32f32c32<a32e32g32a32>c32e32a32>c32e32>c32<a32f32c32<a32f32c32<a32e32g32
A r1
A >>>e16c16<a16>e16c16<a16b16g16e16b16g16e16g16e16c16d16
A <b16g16a16f16d16e16c16<a16>e16c16<a16b16>c16d16e8
A <a16>c16e16a16>c16e16r16a16f16c16<a16f16c16<a16e16g16
A <a16b16>c16d16e16f16a16b16>c16d16e16f16g16a16b16>c16
A d4e4f4g4
A r1
A r1
A >e16c16<a16>e16c16<a16b16g16e16b16g16e16g16e16c16d16
A <b16g16a16f16d16e16c16<a16>e16c16<a16b16>c16d16e8
A <a16>c16e16a16>c16e16>c16<a16f16c16<a16f16c16<a16e16g16
A a16>c16e16a16>c16e16>c16<a16f16c16<a16f16c16<a16e16g16
A a32>c32e32a32>c32e32>c32<a32f32c32<a32f32c32<a32e32g32a32>c32e32a32>c32e32>c32<a32f32c32<a32f32c32<a32e32g32

B t160 v10 @@2
B r1
B r1
B r1
B r1
B r1
B r1
B r1
B r1
B r1
B r1
B o6e1^1
B r1
B r1
B r4.
B >e16<r1
B r1
B r2
B r16
B e1f1<<
B r1
B r1
B r1
B r1
B r1
B r1
B r1
B r1
B r1
B r1
B r1
B r1
B r1
B r1
B r1
B r1
B >>e1
B r1
B r1
B r4.
B >e16<r1
B r1
B r2
B r16
B e1f1<<
B r1
B r1

D t160 v7 @q2
D o0
D [a16r16r1.
D a16r16r4
D a16r16r1.
D a16r16r4
D a16r16r1.
D a16r16r4
D a16r16r1.
D a16r16r4]6

C t160 v6
C o5
C <a8<a16a16>c8<a16a16>d8<a16a16>e8<a16a16
C [>c8<a16a16>d8<a16a16>e8a8<a8a8
C >g8<a16a16>c8<a16a16>d8<a16a16>e8<a16a16
C >c8<a16a16>d8<a16a16>e8g8<a8a8
C >f8<a16a16>c8<a16a16>d8<a16a16>e8<a16a16
C >c8<a16a16>d8<a16a16>e8f8<a8a8
C >g8<a16a16>c8<a16a16>d8<a16a16>e8<a16a16
C >c8<a16a16>d8<a16a16>e8g8<a8a8
C >a8<a16a16>c8<a16a16>d8<a16a16>e8<a16a16]5
C >c8<a16a16>d8<a16a16>e8a8<a8a8
C >g8<a16a16>c8<a16a16>d8<a16a16>e8<a16a16
C >c8<a16a16>d8<a16a16>e8g8<a8a8
C >f8<a16a16>c8<a16a16>d8<a16a16>e8<a16a16
C >c8<a16a16>d8<a16a16>e8f8<a8a8
C >g8<a16a16>c8<a16a16>d8<a16a16>e8<a16a16
C >c8<a16a16>d8<a16a16>e8g8<a8a8
