A t130 @@0 v10
A o3c8r8d+4c+8r8d+4
A c+16r16c+8d+4>c+4<g8.>f+16
A <c16r16c8d+8r8c+16r16c+8d+8.r16
A c+16r16c+8e8r8f+8.r16>f+4
A <c8r8d+4c+8r8d+4
A c+16r16c+8d+4>c+4<g8.>f+16
A <c16r16c8d+8r8c+16r16c+8d+8.r16
A c+16r16c+8e8r8f+8.r16>f+4
A <c8r8d+4c+8r8d+4
A c+16r16c+8d+4>c+4<g8.>f+16
A <c16r16c8d+8r8c+16r16c+8d+8.r16
A c+16r16c+8e8r8f+8.r16>f+4
A <c32r32c32r16.c32r32c2r4
A d+16r16c+16r16d+16r16c+16r16d+16r16c+16r16d+16r16c+16r16
A >c32r32c32r16.c32r32c2r4
A d+16r16c+16r16d+16r16c+16r16d+16r16c+16r16d+16r8.
A <c32r32c32r16.c32r32c2r4
A d+16r16c+16r16d+16r16c+16r16d+16r16c+16r16d+16r16c+16r16
A >c32r32c32r16.c32r32c2r4
A d+16r16c+16r16d+16r16c+16r16d+16r16c+16r16d+16r8.
A <c32r32c32r16.c32r32c2r4
A d+16r16c+16r16d+16r16c+16r16d+16r16c+16r16d+16r16c+16r16
A >c32r32c32r16.c32r32c2r4
A d+16r16c+16r16d+16r16c+16r16d+16r16c+16r16d+16r8.
A r64

B v6 @@2
B t130
B o4c2.r4
B d2<b2
B >c2.r4
B <b2>d2
B c2.r4
B d2<b2
B >c2.r4
B <b2>d2
B c2.r4
B d2<b2
B >c2.r4
B <b2>d2
B c2..r8
B <b2>d2
B c2..r8
B b2>d2
B <c2..r8
B <b2>d2
B c2..r8
B b2>d2
B <c2..r8
B <b2>d2
B c2..r8
B b2>d2
B r64

D t130 @q10
D v10
D o0c16r16c16r16c16r16c16r16c16r16c16r16c16r16c16r16
D c16r16c16r16c16r16c16r16c16c16r16c16c16r16c16r16
D c16r16c16r16c16r16c16r16c16r16c16r16c16r16c16r16
D c16r16c16r16c16r16c16r16c16c16r16c16c16r16c16r16
D c16r16c16r16c16r16c16r16c16r16c16r16c16r16c16r16
D c16r16c16r16c16r16c16r16c16c16r16c16c16r16c16r16
D c16r16c16r16c16r16c16r16c16r16c16r16c16r16c16r16
D c16r16c16r16c16r16c16r16c16c16r16c16c16r16c16r16
D c16r16c16r16c16r16c16r16c16r16c16r16c16r16c16r16
D c16r16c16r16c16r16c16r16c16c16r16c16c16r16c16r16
D c16r16c16r16c16r16c16r16c16r16c16r16c16r16c16r16
D c16r16c16r16c16r16c16r16c16c16r16c16c16r16c16r16
D c32r8..c32r8..c32r16.c32r16.c32r8..
D c32r8..c32r8..c32r16.c32r16.c32r8..
D c32r8..c32r8..c32r16.c32r16.c32r8..
D c32r8..c32r4...c32r16.c32r16.
D c32r8..c32r8..c32r16.c32r16.c32r8..
D c32r8..c32r8..c32r16.c32r16.c32r8..
D c32r8..c32r8..c32r16.c32r16.c32r8..
D c32r8..c32r4...c32r16.c32r16.
D c32r8..c32r8..c32r16.c32r16.c32r8..
D c32r8..c32r8..c32r16.c32r16.c32r8..
D c32r8..c32r8..c32r16.c32r16.c32r8..
D c32r8..c32r4...c32r16.c32r16..

E t130
E o0
E e1
E c16r4..c16c16r16c16c16r16c16r16
E c16r4..c16r16c16r16c16r8.
E c16r16c16r16c16r8.c16c16r16c16c16r16c16r16
E e1
E c16r4..c16c16r16c16c16r16c16r16
E c16r4..c16r16c16r16c16r8.
E c16r16c16r16c16r8.c16c16r16c16c16r16c16r16
E e1
E c16r4..c16c16r16c16c16r16c16r16
E c16r4..c16r16c16r16c16r8.
E c16r16c16r16c16r8.c16c16r16c16c16r16c16r16
E c16c16r16c16c16r16e1
E r8c16r16c16r16c16r16c16r16
E c16c16r16c16c16r8.c16r16c16r16c16r8.
E c16r8.c16r4..c16r16c16r16
E c16c16r16c16c16r16e1
E r8c16r16c16r16c16r16c16r16
E c16c16r16c16c16r8.c16r16c16r16c16r8.
E c16r8.c16r4..c16r16c16r16
E c16c16r16c16c16r16e1
E r8c16r16c16r16c16r16c16r16
E c16c16r16c16c16r8.c16r16c16r16c16r8.
E c16r8.c16r4..c16r16c16
