A t75 v10
A r16o5c8r16c16c16r4..e8r16
A e16g8.c8r16<a16r16a16r4.
A f16r16a16r16a16r16a16r4>c8r16c16c16
A r4..e8r16e16g8.c8
A r16<a16r16a16r4.f16r16a16r16a16r16
A a16r4>c8r16c16c16r4..
A e8r16e16g8.c8r16<a16r16a16r4.
A f16r16a16r16a16r16a16r4>c8
A r16d16f16r8f16r4f8r16f16a8.
A c8r16<a16r16a16r4.f16r16
A a16r16a16r16a16r2r8.

C t75 v10
C r16o4c8r16c16c16r4..e8r16
C e16g8.c8r16<a16r16a16r4.
C f16r16a16r16a16r16a16r4>c8r16c16c16
C r4..e8r16e16g8.c8
C r16<a16r16a16r4.f16r16a16r16a16r16
C a16r4>c8r16c16c16r4..
C e8r16e16g8.c8r16<a16r16a16r4.
C f16r16a16r16a16r16a16r4>c8
C r16d16f16r8f16r4f8r16f16a8.
C c8r16<a16r16a16r4.f16r16
C a16r16a16r16a16
